SynthDef.new( \dirt,{|vib=0, vibVar=0.04, echo=0, depthVar=0.1, vibDelay=0, slide=0, delay=0, sus=1, hpf=0, pan=0, scrub=0, verb=0.25, amp=1, freq=0, buf=0, echoOn=0, room=1, rate=0, depth=0.02, grain=0, lpf=20000, slidefrom=1|var osc,env;
amp=(amp * 0.8);
freq=(Vibrato.kr(Line.ar((freq * slidefrom), (freq * (1 + slide)), sus), delay: vibDelay, depthVariation: depthVar, rate: vib, rateVariation: vibVar, depth: depth) / 2);
osc=LPF.ar(HPF.ar(((LFSaw.ar((Vibrato.kr(Line.ar((freq * slidefrom), (freq * (1 + slide)), sus), delay: vibDelay, depthVariation: depthVar, rate: vib, rateVariation: vibVar, depth: depth) / 2), mul: (amp * 0.8)) + VarSaw.ar(((Vibrato.kr(Line.ar((freq * slidefrom), (freq * (1 + slide)), sus), delay: vibDelay, depthVariation: depthVar, rate: vib, rateVariation: vibVar, depth: depth) / 2) + 1), width: 0.85, mul: (amp * 0.8))) + SinOscFB.ar(((Vibrato.kr(Line.ar((freq * slidefrom), (freq * (1 + slide)), sus), delay: vibDelay, depthVariation: depthVar, rate: vib, rateVariation: vibVar, depth: depth) / 2) - 1), mul: ((amp * 0.8) / 2))), hpf), (lpf + 1));
env=EnvGen.ar(Env.perc(level: amp, releaseTime: sus).delay(delay), doneAction: 2);
Out.ar(0, Pan2.ar(FreeVerb.ar(osc * env, verb, room), pan))}).add;