SynthDef.new( \test,{|vib=0, vibVar=0.04, echo=0, depthVar=0.1, vibDelay=0, slide=0, delay=0, sus=1, bits=24, hpf=0, pan=0, scrub=0, verb=0.1, amp=1, freq=0, buf=0, echoOn=0, room=0.3, rate=0, depth=0.02, grain=0, lpf=20000, slidefrom=1|var osc,env;
amp=(amp * 0.5);
freq=Vibrato.kr(Line.ar((freq * slidefrom), (freq * (1 + slide)), sus), delay: vibDelay, depthVariation: depthVar, rate: vib, rateVariation: vibVar, depth: depth);
osc=Decimator.ar(LPF.ar(HPF.ar(VarSaw.ar([Vibrato.kr(Line.ar((freq * slidefrom), (freq * (1 + slide)), sus), delay: vibDelay, depthVariation: depthVar, rate: vib, rateVariation: vibVar, depth: depth), (Vibrato.kr(Line.ar((freq * slidefrom), (freq * (1 + slide)), sus), delay: vibDelay, depthVariation: depthVar, rate: vib, rateVariation: vibVar, depth: depth) * 1.005)], mul: (amp * 0.5), width: rate), hpf), (lpf + 1)), rate: 44100, bits: bits);
env=EnvGen.ar(Env(releaseTime: sus, level: amp, levels: [0, amp, 0], times: [(sus / 2), (sus / 2)]), doneAction: 2);
Out.ar(0, Pan2.ar(FreeVerb.ar(osc * env, verb, room), pan))}).add;