SynthDef.new( \zap,{|vib=0, vibVar=0.04, echo=0, depthVar=0.1, vibDelay=0, slide=0, delay=0, sus=1, hpf=0, pan=0, scrub=0, verb=0, amp=1, freq=0, buf=0, echoOn=0, room=0, rate=0, depth=0.02, grain=0, lpf=20000, slidefrom=1|var osc,env;
amp=(amp / 10);
freq=Vibrato.kr(Line.ar((freq * slidefrom), (freq * (1 + slide)), sus), delay: vibDelay, depthVariation: depthVar, rate: vib, rateVariation: vibVar, depth: depth);
osc=LPF.ar(HPF.ar((Saw.ar(((Vibrato.kr(Line.ar((freq * slidefrom), (freq * (1 + slide)), sus), delay: vibDelay, depthVariation: depthVar, rate: vib, rateVariation: vibVar, depth: depth) * [1, 1.01]) + LFNoise2.ar(50).range(-2, 2))) + VarSaw.ar((Vibrato.kr(Line.ar((freq * slidefrom), (freq * (1 + slide)), sus), delay: vibDelay, depthVariation: depthVar, rate: vib, rateVariation: vibVar, depth: depth) + LFNoise2.ar(50).range(-2, 2)), 1)), hpf), (lpf + 1));
env=EnvGen.ar(Env.perc(attackTime: 0.025, level: amp, curve: -10, releaseTime: sus).delay(delay), doneAction: 2);
Out.ar(0, Pan2.ar(FreeVerb.ar(osc * env, verb, room), pan))}).add;