SynthDef.new(\bass,
{|vib=0, bus=0, fmod=0, sus=1, amp=1, rate=8, freq=0, pan=0|
var osc, env;
freq = In.kr(bus, 1);
freq = [freq, freq+fmod];
freq=(freq / 4);
amp=(amp * 0.8);
osc=((LFTri.ar(freq, mul: amp) + VarSaw.ar(freq, width: (rate / 10), mul: amp)) + SinOscFB.ar(freq, mul: (amp / 2)));
env=EnvGen.ar(Env.perc(releaseTime: sus,curve: 'lin',attackTime: 0.02,level: amp), doneAction: 0);
osc=(osc * env);
osc = Mix(osc) * 0.5;
osc = Pan2.ar(osc, pan);
	ReplaceOut.ar(bus, osc)}).add;
