SynthDef.new(\crunch,
{|vib=0, rate=0, sus=1, fmod=0, bus=0, amp=1, freq=0, pan=0|
var osc, env;
freq = In.kr(bus, 1);
freq = freq + fmod;
amp=(amp * 0.5);
osc=LFNoise0.ar(((Crackle.kr(1.95) * freq) * 15), mul: amp);
env=EnvGen.ar(Env.perc(level: (amp / 4),curve: 0,attackTime: 0.01,releaseTime: 0.1), doneAction: 0);
osc=(osc * env);
osc = Mix(osc) * 0.5;
osc = Pan2.ar(osc, pan);
	ReplaceOut.ar(bus, osc)}).add;
