SynthDef.new(\dirt,
{|pan=0, sus=1, rate=0, vib=0, fmod=0, freq=0, amp=1, bus=0|
var osc, env;
freq = In.kr(bus, 1);
freq = [freq, freq+fmod];
freq=(freq / 4);
amp=(amp / 2);
osc=((LFSaw.ar(freq, mul: amp) + VarSaw.ar((freq + 1), width: 0.85, mul: amp)) + SinOscFB.ar((freq - 1), mul: (amp / 2)));
env=EnvGen.ar(Env.perc(curve: 0,releaseTime: sus,level: amp,attackTime: 0.01), doneAction: 0);
osc=(osc * env);
osc = Mix(osc) * 0.5;
osc = Pan2.ar(osc, pan);
	ReplaceOut.ar(bus, osc)}).add;
