SynthDef.new(\fuzz,
{|vib=0, bus=0, slide=0, rate=1, sus=1, slidefrom=1, fmod=0, amp=1, freq=0, pan=0|
var osc, env;
freq = freq + fmod;
freq = Line.ar(freq * slidefrom, freq * (1 + slide), sus);
freq = Vibrato.kr(freq, rate: vib);
freq=(freq / 2);
amp=(amp / 6);
osc=LFSaw.ar(LFSaw.kr(freq, 0, freq, (freq * 2)));
env=EnvGen.ar(Env(levels: [(amp * 1), (amp * 1)],curve: 'step',times: [sus]), doneAction: 2);

osc = osc * env;
osc = Limiter.ar(osc, level: 1);
osc = osc * [min(1, (1-pan)/2), min(1, (pan+1)/2)];
	Out.ar(bus, osc)}).add;