SynthDef.new(\klank,
{|amp=1, freq=0, pan=0, rate=0, vib=0, sus=1, fmod=0, bus=0|
var osc, env;
freq = In.kr(bus, 1);
freq = [freq, freq+fmod];
sus=(sus * 1.5);
osc=Klank.ar(`[[1, 2, 3, 4], [1, 1, 1, 1], [2, 2, 2, 2]], ClipNoise.ar(0.0005).dup, freq);
osc=Decimator.ar(osc, bits: (rate - 1));
env=EnvGen.ar(Env(times: (sus * 2),curve: 'lin',levels: [0, amp, 0]), doneAction: 0);
osc=(osc * env);
osc = Mix(osc) * 0.5;
osc = Pan2.ar(osc, pan);
	ReplaceOut.ar(bus, osc)}).add;
