SynthDef.new(\marimba,
{|vib=0, bus=0, fmod=0, sus=1, amp=1, rate=0, freq=0, pan=0|
var osc, env;
freq = In.kr(bus, 1);
freq = [freq, freq+fmod];
osc=Klank.ar(`[[0.5, 1, 4, 9], [0.5, 1, 1, 1], [1, 1, 1, 1]], PinkNoise.ar([0.007, 0.007]), freq, [0, 2]);
sus=1;
env=EnvGen.ar(Env.perc(releaseTime: sus,curve: -6,attackTime: 0.001,level: amp), doneAction: 0);
osc=(osc * env);
osc = Mix(osc) * 0.5;
osc = Pan2.ar(osc, pan);
	ReplaceOut.ar(bus, osc)}).add;
