SynthDef.new(\noise,
{|vib=0, bus=0, slide=0, rate=1, sus=1, slidefrom=1, fmod=0, amp=1, freq=0, bits=0, pan=0|
var osc, env;
freq = freq + fmod;
freq = Line.ar(freq * slidefrom, freq * (1 + slide), sus);
freq = Vibrato.kr(freq, rate: vib);
osc=LFNoise0.ar(freq, amp);
env=EnvGen.ar(Env(levels: [0, amp, 0],curve: 'lin',times: [(sus / 2), (sus / 2)]), doneAction: 0);
osc=(osc * env);
osc = Mix(osc) * 0.5;
osc = Pan2.ar(osc, pan);
	ReplaceOut.ar(bus, osc)}).add;
