SynthDef.new(\piano,
{|vib=0, rate=0, sus=1, fmod=0, bus=0, amp=1, freq=0, pan=0|
var osc, env;
freq = In.kr(bus, 1);
freq = freq + fmod;
freq = Vibrato.kr(freq, rate: vib);
amp=(amp / 2);
osc=MdaPiano.ar(freq, vel: (40 + (amp * 60)), decay: (sus / 4));
env=EnvGen.ar(Env(levels: [(amp * 1), (amp * 1)],curve: 'step',times: [sus]), doneAction: 0);
osc=(osc * env);
osc = Mix(osc) * 0.5;
osc = Pan2.ar(osc, pan);
	ReplaceOut.ar(bus, osc)}).add;
