SynthDef.new(\pulse,
{|vib=0, bus=0, slide=0, rate=1, sus=1, slidefrom=1, fmod=0, amp=1, freq=0, bits=0, pan=0|
var osc, env;
freq = freq + fmod;
freq = Line.ar(freq * slidefrom, freq * (1 + slide), sus);
freq = Vibrato.kr(freq, rate: vib);
amp=(amp / 4);
osc=Pulse.ar(freq);
env=EnvGen.ar(Env(levels: [0, 1, 1, 0],curve: 'lin',times: [0.01, (sus - 0.01), 0.01]), doneAction: 0);
osc=(osc * env);
osc = osc * [min(1, (1-pan)/2), min(1, (pan+1)/2)];
	ReplaceOut.ar(bus, osc)}).add;
