SynthDef.new(\rave,
{|vib=0, rate=0, sus=1, fmod=0, bus=0, amp=1, freq=0, pan=0|
var osc, env;
freq = In.kr(bus, 1);
freq = freq + fmod;
osc=Gendy1.ar((rate - 1), mul: (amp / 2), minfreq: freq, maxfreq: (freq * 2));
env=EnvGen.ar(Env.perc(level: amp,curve: 0,attackTime: 0.01,releaseTime: sus), doneAction: 0);
osc=(osc * env);
osc = Mix(osc) * 0.5;
osc = Pan2.ar(osc, pan);
	ReplaceOut.ar(bus, osc)}).add;
