SynthDef.new(\snick,
{|amp=1, sus=1, pan=0, freq=0, vib=0, fmod=0, rate=0, bus=0|
var osc, env;
freq = In.kr(bus, 1);
freq = [freq, freq+fmod];
osc=(LFPar.ar(freq, mul: 1) * Blip.ar(((rate + 1) * 4)));
env=EnvGen.ar(Env.perc(attackTime: 0.01,releaseTime: sus,level: amp,curve: 0), doneAction: 0);
osc=(osc * env);
osc = Mix(osc) * 0.5;
osc = Pan2.ar(osc, pan);
	ReplaceOut.ar(bus, osc)}).add;
