SynthDef.new(\soft,
{|amp=1, sus=1, pan=0, freq=0, vib=0, fmod=0, rate=0, bus=0|
var osc, env;
freq = In.kr(bus, 1);
freq = [freq, freq+fmod];
freq=(freq / 2);
osc=Klank.ar(`[[7, 5, 3, 1], [8, 4, 2, 1], [2, 4, 8, 16]], LFNoise0.ar((rate / sus)), freq);
env=EnvGen.ar(Env(times: sus,levels: [0, amp, 0],curve: 'lin'), doneAction: 0);
osc=(osc * env);
osc = Mix(osc) * 0.5;
osc = Pan2.ar(osc, pan);
	ReplaceOut.ar(bus, osc)}).add;
