SynthDef.new(\soft,
{|vib=0, rate=0, sus=1, fmod=0, bus=0, amp=1, freq=0, pan=0|
var osc, env;
freq = In.kr(bus, 1);
freq = [freq, freq+fmod];
freq=(freq / 2);
amp=(amp / (200 * (1 + rate)));
osc=Klank.ar(`[[7, 5, 3, 1], [8, 4, 2, 1], [2, 4, 8, 16]], LFNoise0.ar((rate / sus)), freq);
env=EnvGen.ar(Env(levels: [0, amp, 0],curve: 'lin',times: sus), doneAction: 0);
osc=(osc * env);
osc = Mix(osc) * 0.5;
osc = Pan2.ar(osc, pan);
	ReplaceOut.ar(bus, osc)}).add;
