SynthDef.new(\soprano,
{|vib=0, rate=0, sus=1, fmod=0, bus=0, amp=1, freq=0, pan=0|
var osc, env;
freq = In.kr(bus, 1);
freq = [freq, freq+fmod];
sus=(sus * 1.75);
amp=(amp / 2);
freq=Vibrato.kr(freq, (rate + 4));
osc=(SinOsc.ar((freq * 3), mul: amp) + SinOscFB.ar((freq * 3), mul: (amp / 2)));
env=EnvGen.ar(Env(levels: [0, amp, 0],curve: 'lin',times: [(sus / 2), (sus / 2)]), doneAction: 0);
osc=(osc * env);
osc = Mix(osc) * 0.5;
osc = Pan2.ar(osc, pan);
	ReplaceOut.ar(bus, osc)}).add;
