SynthDef.new(\spark,
{|pan=0, sus=1, rate=0, vib=0, fmod=0, freq=0, amp=1, bus=0|
var osc, env;
freq = In.kr(bus, 1);
freq = [freq, freq+fmod];
amp=(amp + 1e-05);
freq=(freq + [0, LFNoise2.ar(50).range(-2, 2)]);
osc=((LFSaw.ar((freq * 1.002), iphase: Saw.ar(0.1)) * 0.3) + (LFSaw.ar(freq, iphase: Saw.ar(0.1)) * 0.3));
osc=(((osc * Line.ar(amp, (amp / 10000), (sus * 1.5))) * 0.3) * Line.ar(0.01, 1, (sus * 0.033)));
osc = Mix(osc) * 0.5;
osc = Pan2.ar(osc, pan);
	ReplaceOut.ar(bus, osc)}).add;
