SynthDef.new(\varsaw,
{|amp=1, freq=0, pan=0, rate=0, vib=0, sus=1, fmod=0, bus=0|
var osc, env;
freq = In.kr(bus, 1);
freq = [freq, freq+fmod];
freq=(freq * [1, 1.005]);
osc=VarSaw.ar(freq, mul: (amp / 4), width: rate);
env=EnvGen.ar(Env(times: [(sus / 2), (sus / 2)],curve: 'lin',levels: [0, amp, 0]), doneAction: 0);
osc=(osc * env);
osc = Mix(osc) * 0.5;
osc = Pan2.ar(osc, pan);
	ReplaceOut.ar(bus, osc)}).add;
