Buffer.read(s, "C:/Users/Ryan/Documents/GitHub/FoxDot/FoxDot/snd/a/lower/gb_hihat 0.wav", bufnum:1);
Buffer.read(s, "C:/Users/Ryan/Documents/GitHub/FoxDot/FoxDot/snd/a/lower/gb_hihat 1.wav", bufnum:2);
Buffer.read(s, "C:/Users/Ryan/Documents/GitHub/FoxDot/FoxDot/snd/a/lower/gb_hihat 3.wav", bufnum:3);
Buffer.read(s, "C:/Users/Ryan/Documents/GitHub/FoxDot/FoxDot/snd/a/lower/gb_hihat 4.wav", bufnum:4);
Buffer.read(s, "C:/Users/Ryan/Documents/GitHub/FoxDot/FoxDot/snd/b/lower/dot (1).wav", bufnum:5);
Buffer.read(s, "C:/Users/Ryan/Documents/GitHub/FoxDot/FoxDot/snd/b/lower/dot (2).wav", bufnum:6);
Buffer.read(s, "C:/Users/Ryan/Documents/GitHub/FoxDot/FoxDot/snd/b/lower/dot (3).wav", bufnum:7);
Buffer.read(s, "C:/Users/Ryan/Documents/GitHub/FoxDot/FoxDot/snd/b/lower/dot (4).wav", bufnum:8);
Buffer.read(s, "C:/Users/Ryan/Documents/GitHub/FoxDot/FoxDot/snd/c/lower/voice_1.wav", bufnum:9);
Buffer.read(s, "C:/Users/Ryan/Documents/GitHub/FoxDot/FoxDot/snd/c/lower/voice_2.wav", bufnum:10);
Buffer.read(s, "C:/Users/Ryan/Documents/GitHub/FoxDot/FoxDot/snd/c/lower/voice_3.wav", bufnum:11);
Buffer.read(s, "C:/Users/Ryan/Documents/GitHub/FoxDot/FoxDot/snd/d/lower/alt_rimshot_00.wav", bufnum:12);
Buffer.read(s, "C:/Users/Ryan/Documents/GitHub/FoxDot/FoxDot/snd/d/lower/rimshot_0.wav", bufnum:13);
Buffer.read(s, "C:/Users/Ryan/Documents/GitHub/FoxDot/FoxDot/snd/d/lower/rimshot_1.wav", bufnum:14);
Buffer.read(s, "C:/Users/Ryan/Documents/GitHub/FoxDot/FoxDot/snd/d/lower/rimshot_2.wav", bufnum:15);
Buffer.read(s, "C:/Users/Ryan/Documents/GitHub/FoxDot/FoxDot/snd/e/lower/cb0.wav", bufnum:16);
Buffer.read(s, "C:/Users/Ryan/Documents/GitHub/FoxDot/FoxDot/snd/e/lower/cb1.wav", bufnum:17);
Buffer.read(s, "C:/Users/Ryan/Documents/GitHub/FoxDot/FoxDot/snd/f/lower/Perc02.wav", bufnum:18);
Buffer.read(s, "C:/Users/Ryan/Documents/GitHub/FoxDot/FoxDot/snd/f/lower/Perc03.wav", bufnum:19);
Buffer.read(s, "C:/Users/Ryan/Documents/GitHub/FoxDot/FoxDot/snd/f/lower/Perc04.wav", bufnum:20);
Buffer.read(s, "C:/Users/Ryan/Documents/GitHub/FoxDot/FoxDot/snd/f/lower/Perc05.wav", bufnum:21);
Buffer.read(s, "C:/Users/Ryan/Documents/GitHub/FoxDot/FoxDot/snd/f/lower/Perc11.wav", bufnum:22);
Buffer.read(s, "C:/Users/Ryan/Documents/GitHub/FoxDot/FoxDot/snd/g/lower/om0.wav", bufnum:23);
Buffer.read(s, "C:/Users/Ryan/Documents/GitHub/FoxDot/FoxDot/snd/g/lower/om1.wav", bufnum:24);
Buffer.read(s, "C:/Users/Ryan/Documents/GitHub/FoxDot/FoxDot/snd/g/lower/om2.wav", bufnum:25);
Buffer.read(s, "C:/Users/Ryan/Documents/GitHub/FoxDot/FoxDot/snd/h/lower/snap_.wav", bufnum:26);
Buffer.read(s, "C:/Users/Ryan/Documents/GitHub/FoxDot/FoxDot/snd/h/lower/snap_0.wav", bufnum:27);
Buffer.read(s, "C:/Users/Ryan/Documents/GitHub/FoxDot/FoxDot/snd/h/lower/snap_1.wav", bufnum:28);
Buffer.read(s, "C:/Users/Ryan/Documents/GitHub/FoxDot/FoxDot/snd/h/lower/snap_2.wav", bufnum:29);
Buffer.read(s, "C:/Users/Ryan/Documents/GitHub/FoxDot/FoxDot/snd/h/lower/snap_4.wav", bufnum:30);
Buffer.read(s, "C:/Users/Ryan/Documents/GitHub/FoxDot/FoxDot/snd/i/lower/0_jungle_snare.wav", bufnum:31);
Buffer.read(s, "C:/Users/Ryan/Documents/GitHub/FoxDot/FoxDot/snd/i/lower/1_jungle_snare.wav", bufnum:32);
Buffer.read(s, "C:/Users/Ryan/Documents/GitHub/FoxDot/FoxDot/snd/i/lower/2_jungle_snare.wav", bufnum:33);
Buffer.read(s, "C:/Users/Ryan/Documents/GitHub/FoxDot/FoxDot/snd/i/lower/3_jungle_snare.wav", bufnum:34);
Buffer.read(s, "C:/Users/Ryan/Documents/GitHub/FoxDot/FoxDot/snd/i/lower/4_jungle_snare.wav", bufnum:35);
Buffer.read(s, "C:/Users/Ryan/Documents/GitHub/FoxDot/FoxDot/snd/i/lower/5_jungle_snare.wav", bufnum:36);
Buffer.read(s, "C:/Users/Ryan/Documents/GitHub/FoxDot/FoxDot/snd/j/lower/44.wav", bufnum:37);
Buffer.read(s, "C:/Users/Ryan/Documents/GitHub/FoxDot/FoxDot/snd/j/lower/45.wav", bufnum:38);
Buffer.read(s, "C:/Users/Ryan/Documents/GitHub/FoxDot/FoxDot/snd/j/lower/46.wav", bufnum:39);
Buffer.read(s, "C:/Users/Ryan/Documents/GitHub/FoxDot/FoxDot/snd/j/lower/47.wav", bufnum:40);
Buffer.read(s, "C:/Users/Ryan/Documents/GitHub/FoxDot/FoxDot/snd/j/lower/48.wav", bufnum:41);
Buffer.read(s, "C:/Users/Ryan/Documents/GitHub/FoxDot/FoxDot/snd/k/lower/misc (1).wav", bufnum:42);
Buffer.read(s, "C:/Users/Ryan/Documents/GitHub/FoxDot/FoxDot/snd/k/lower/misc (2).wav", bufnum:43);
Buffer.read(s, "C:/Users/Ryan/Documents/GitHub/FoxDot/FoxDot/snd/k/lower/misc (3).wav", bufnum:44);
Buffer.read(s, "C:/Users/Ryan/Documents/GitHub/FoxDot/FoxDot/snd/k/lower/misc (4).wav", bufnum:45);
Buffer.read(s, "C:/Users/Ryan/Documents/GitHub/FoxDot/FoxDot/snd/k/lower/misc (5).wav", bufnum:46);
Buffer.read(s, "C:/Users/Ryan/Documents/GitHub/FoxDot/FoxDot/snd/k/lower/misc (6).wav", bufnum:47);
Buffer.read(s, "C:/Users/Ryan/Documents/GitHub/FoxDot/FoxDot/snd/l/lower/perc_0.wav", bufnum:48);
Buffer.read(s, "C:/Users/Ryan/Documents/GitHub/FoxDot/FoxDot/snd/l/lower/perc_1.wav", bufnum:49);
Buffer.read(s, "C:/Users/Ryan/Documents/GitHub/FoxDot/FoxDot/snd/l/lower/perc_2.wav", bufnum:50);
Buffer.read(s, "C:/Users/Ryan/Documents/GitHub/FoxDot/FoxDot/snd/l/lower/perc_3.wav", bufnum:51);
Buffer.read(s, "C:/Users/Ryan/Documents/GitHub/FoxDot/FoxDot/snd/l/lower/perc_4.wav", bufnum:52);
Buffer.read(s, "C:/Users/Ryan/Documents/GitHub/FoxDot/FoxDot/snd/l/lower/perc_5.wav", bufnum:53);
Buffer.read(s, "C:/Users/Ryan/Documents/GitHub/FoxDot/FoxDot/snd/l/lower/perc_6.wav", bufnum:54);
Buffer.read(s, "C:/Users/Ryan/Documents/GitHub/FoxDot/FoxDot/snd/l/lower/perc_7.wav", bufnum:55);
Buffer.read(s, "C:/Users/Ryan/Documents/GitHub/FoxDot/FoxDot/snd/l/lower/perc_8.wav", bufnum:56);
Buffer.read(s, "C:/Users/Ryan/Documents/GitHub/FoxDot/FoxDot/snd/m/lower/0_Tom.wav", bufnum:57);
Buffer.read(s, "C:/Users/Ryan/Documents/GitHub/FoxDot/FoxDot/snd/m/lower/1_Tom-Electro.wav", bufnum:58);
Buffer.read(s, "C:/Users/Ryan/Documents/GitHub/FoxDot/FoxDot/snd/m/lower/2_Tom-Distort.wav", bufnum:59);
Buffer.read(s, "C:/Users/Ryan/Documents/GitHub/FoxDot/FoxDot/snd/m/lower/3_Tom-909.wav", bufnum:60);
Buffer.read(s, "C:/Users/Ryan/Documents/GitHub/FoxDot/FoxDot/snd/n/lower/Closedhat02.wav", bufnum:61);
Buffer.read(s, "C:/Users/Ryan/Documents/GitHub/FoxDot/FoxDot/snd/n/lower/Closedhat04.wav", bufnum:62);
Buffer.read(s, "C:/Users/Ryan/Documents/GitHub/FoxDot/FoxDot/snd/n/lower/Closedhat05.wav", bufnum:63);
Buffer.read(s, "C:/Users/Ryan/Documents/GitHub/FoxDot/FoxDot/snd/n/lower/Closedhat06.wav", bufnum:64);
Buffer.read(s, "C:/Users/Ryan/Documents/GitHub/FoxDot/FoxDot/snd/n/lower/Closedhat08.wav", bufnum:65);
Buffer.read(s, "C:/Users/Ryan/Documents/GitHub/FoxDot/FoxDot/snd/n/lower/Closedhat10.wav", bufnum:66);
Buffer.read(s, "C:/Users/Ryan/Documents/GitHub/FoxDot/FoxDot/snd/o/lower/0_snare_drum.wav", bufnum:67);
Buffer.read(s, "C:/Users/Ryan/Documents/GitHub/FoxDot/FoxDot/snd/o/lower/1_snare_dru.wav", bufnum:68);
Buffer.read(s, "C:/Users/Ryan/Documents/GitHub/FoxDot/FoxDot/snd/o/lower/2_snare_drum.wav", bufnum:69);
Buffer.read(s, "C:/Users/Ryan/Documents/GitHub/FoxDot/FoxDot/snd/o/lower/3_snare_drum.wav", bufnum:70);
Buffer.read(s, "C:/Users/Ryan/Documents/GitHub/FoxDot/FoxDot/snd/o/lower/9_snare_drum.wav", bufnum:71);
Buffer.read(s, "C:/Users/Ryan/Documents/GitHub/FoxDot/FoxDot/snd/p/lower/07-tabla_re.wav", bufnum:72);
Buffer.read(s, "C:/Users/Ryan/Documents/GitHub/FoxDot/FoxDot/snd/p/lower/11-tabla_te1.wav", bufnum:73);
Buffer.read(s, "C:/Users/Ryan/Documents/GitHub/FoxDot/FoxDot/snd/p/lower/12-tabla_te2.wav", bufnum:74);
Buffer.read(s, "C:/Users/Ryan/Documents/GitHub/FoxDot/FoxDot/snd/p/lower/13-tabla_te_m.wav", bufnum:75);
Buffer.read(s, "C:/Users/Ryan/Documents/GitHub/FoxDot/FoxDot/snd/p/lower/14-tabla_te_ne.wav", bufnum:76);
Buffer.read(s, "C:/Users/Ryan/Documents/GitHub/FoxDot/FoxDot/snd/q/lower/113.wav", bufnum:77);
Buffer.read(s, "C:/Users/Ryan/Documents/GitHub/FoxDot/FoxDot/snd/q/lower/Apex & Motivation Synth 1.wav", bufnum:78);
Buffer.read(s, "C:/Users/Ryan/Documents/GitHub/FoxDot/FoxDot/snd/r/lower/00_metal.wav", bufnum:79);
Buffer.read(s, "C:/Users/Ryan/Documents/GitHub/FoxDot/FoxDot/snd/r/lower/0_metal.wav", bufnum:80);
Buffer.read(s, "C:/Users/Ryan/Documents/GitHub/FoxDot/FoxDot/snd/r/lower/1_metal.wav", bufnum:81);
Buffer.read(s, "C:/Users/Ryan/Documents/GitHub/FoxDot/FoxDot/snd/r/lower/2_metal.wav", bufnum:82);
Buffer.read(s, "C:/Users/Ryan/Documents/GitHub/FoxDot/FoxDot/snd/s/lower/0_shaker.wav", bufnum:83);
Buffer.read(s, "C:/Users/Ryan/Documents/GitHub/FoxDot/FoxDot/snd/s/lower/2_shaker.wav", bufnum:84);
Buffer.read(s, "C:/Users/Ryan/Documents/GitHub/FoxDot/FoxDot/snd/s/lower/3_shaker.wav", bufnum:85);
Buffer.read(s, "C:/Users/Ryan/Documents/GitHub/FoxDot/FoxDot/snd/s/lower/4_shaker.wav", bufnum:86);
Buffer.read(s, "C:/Users/Ryan/Documents/GitHub/FoxDot/FoxDot/snd/t/lower/alt_rimshot_0.wav", bufnum:87);
Buffer.read(s, "C:/Users/Ryan/Documents/GitHub/FoxDot/FoxDot/snd/t/lower/alt_rimshot_1.wav", bufnum:88);
Buffer.read(s, "C:/Users/Ryan/Documents/GitHub/FoxDot/FoxDot/snd/t/lower/alt_rimshot_2.wav", bufnum:89);
Buffer.read(s, "C:/Users/Ryan/Documents/GitHub/FoxDot/FoxDot/snd/u/lower/soft_snare_0.wav", bufnum:90);
Buffer.read(s, "C:/Users/Ryan/Documents/GitHub/FoxDot/FoxDot/snd/u/lower/soft_snare_1.wav", bufnum:91);
Buffer.read(s, "C:/Users/Ryan/Documents/GitHub/FoxDot/FoxDot/snd/u/lower/soft_snare_2.wav", bufnum:92);
Buffer.read(s, "C:/Users/Ryan/Documents/GitHub/FoxDot/FoxDot/snd/u/lower/soft_snare_3.wav", bufnum:93);
Buffer.read(s, "C:/Users/Ryan/Documents/GitHub/FoxDot/FoxDot/snd/u/lower/soft_snare_4.wav", bufnum:94);
Buffer.read(s, "C:/Users/Ryan/Documents/GitHub/FoxDot/FoxDot/snd/v/lower/0_bass_low.wav", bufnum:95);
Buffer.read(s, "C:/Users/Ryan/Documents/GitHub/FoxDot/FoxDot/snd/v/lower/1_bass_drum.wav", bufnum:96);
Buffer.read(s, "C:/Users/Ryan/Documents/GitHub/FoxDot/FoxDot/snd/v/lower/1_bass_drum_low.wav", bufnum:97);
Buffer.read(s, "C:/Users/Ryan/Documents/GitHub/FoxDot/FoxDot/snd/v/lower/1_bass_low.wav", bufnum:98);
Buffer.read(s, "C:/Users/Ryan/Documents/GitHub/FoxDot/FoxDot/snd/v/lower/6_bass_drum_lo.wav", bufnum:99);
Buffer.read(s, "C:/Users/Ryan/Documents/GitHub/FoxDot/FoxDot/snd/v/lower/9_bass_drum_lo.wav", bufnum:100);
Buffer.read(s, "C:/Users/Ryan/Documents/GitHub/FoxDot/FoxDot/snd/w/lower/w1.wav", bufnum:101);
Buffer.read(s, "C:/Users/Ryan/Documents/GitHub/FoxDot/FoxDot/snd/w/lower/w2.wav", bufnum:102);
Buffer.read(s, "C:/Users/Ryan/Documents/GitHub/FoxDot/FoxDot/snd/w/lower/w3.wav", bufnum:103);
Buffer.read(s, "C:/Users/Ryan/Documents/GitHub/FoxDot/FoxDot/snd/w/lower/w4.wav", bufnum:104);
Buffer.read(s, "C:/Users/Ryan/Documents/GitHub/FoxDot/FoxDot/snd/x/lower/0_kick_drum.wav", bufnum:105);
Buffer.read(s, "C:/Users/Ryan/Documents/GitHub/FoxDot/FoxDot/snd/x/lower/1_kick_drum.wav", bufnum:106);
Buffer.read(s, "C:/Users/Ryan/Documents/GitHub/FoxDot/FoxDot/snd/x/lower/2_kick_drum.wav", bufnum:107);
Buffer.read(s, "C:/Users/Ryan/Documents/GitHub/FoxDot/FoxDot/snd/x/lower/3_kick_drum.wav", bufnum:108);
Buffer.read(s, "C:/Users/Ryan/Documents/GitHub/FoxDot/FoxDot/snd/x/lower/4_kick_drum.wav", bufnum:109);
Buffer.read(s, "C:/Users/Ryan/Documents/GitHub/FoxDot/FoxDot/snd/x/lower/5_kick_drum.wav", bufnum:110);
Buffer.read(s, "C:/Users/Ryan/Documents/GitHub/FoxDot/FoxDot/snd/y/lower/can_0.wav", bufnum:111);
Buffer.read(s, "C:/Users/Ryan/Documents/GitHub/FoxDot/FoxDot/snd/y/lower/can_1.wav", bufnum:112);
Buffer.read(s, "C:/Users/Ryan/Documents/GitHub/FoxDot/FoxDot/snd/z/lower/0_scratch.wav", bufnum:113);
Buffer.read(s, "C:/Users/Ryan/Documents/GitHub/FoxDot/FoxDot/snd/z/lower/1_scratch.wav", bufnum:114);
Buffer.read(s, "C:/Users/Ryan/Documents/GitHub/FoxDot/FoxDot/snd/z/lower/2_scratch.wav", bufnum:115);
Buffer.read(s, "C:/Users/Ryan/Documents/GitHub/FoxDot/FoxDot/snd/z/lower/rewind-rewind.wav", bufnum:116);
Buffer.read(s, "C:/Users/Ryan/Documents/GitHub/FoxDot/FoxDot/snd/a/upper/0_gabba.wav", bufnum:117);
Buffer.read(s, "C:/Users/Ryan/Documents/GitHub/FoxDot/FoxDot/snd/a/upper/1_gabba.wav", bufnum:118);
Buffer.read(s, "C:/Users/Ryan/Documents/GitHub/FoxDot/FoxDot/snd/a/upper/gb_kick 1.wav", bufnum:119);
Buffer.read(s, "C:/Users/Ryan/Documents/GitHub/FoxDot/FoxDot/snd/a/upper/gb_kick 3.wav", bufnum:120);
Buffer.read(s, "C:/Users/Ryan/Documents/GitHub/FoxDot/FoxDot/snd/a/upper/gb_kick 4.wav", bufnum:121);
Buffer.read(s, "C:/Users/Ryan/Documents/GitHub/FoxDot/FoxDot/snd/b/upper/0.wav", bufnum:122);
Buffer.read(s, "C:/Users/Ryan/Documents/GitHub/FoxDot/FoxDot/snd/b/upper/56.wav", bufnum:123);
Buffer.read(s, "C:/Users/Ryan/Documents/GitHub/FoxDot/FoxDot/snd/b/upper/57.wav", bufnum:124);
Buffer.read(s, "C:/Users/Ryan/Documents/GitHub/FoxDot/FoxDot/snd/c/upper/0_Choral.wav", bufnum:125);
Buffer.read(s, "C:/Users/Ryan/Documents/GitHub/FoxDot/FoxDot/snd/c/upper/hit074.wav", bufnum:126);
Buffer.read(s, "C:/Users/Ryan/Documents/GitHub/FoxDot/FoxDot/snd/c/upper/hit085.wav", bufnum:127);
Buffer.read(s, "C:/Users/Ryan/Documents/GitHub/FoxDot/FoxDot/snd/d/upper/alt_snare_0.wav", bufnum:128);
Buffer.read(s, "C:/Users/Ryan/Documents/GitHub/FoxDot/FoxDot/snd/e/upper/E1.wav", bufnum:129);
Buffer.read(s, "C:/Users/Ryan/Documents/GitHub/FoxDot/FoxDot/snd/e/upper/E2.wav", bufnum:130);
Buffer.read(s, "C:/Users/Ryan/Documents/GitHub/FoxDot/FoxDot/snd/e/upper/E3.wav", bufnum:131);
Buffer.read(s, "C:/Users/Ryan/Documents/GitHub/FoxDot/FoxDot/snd/f/upper/Stab 7.wav", bufnum:132);
Buffer.read(s, "C:/Users/Ryan/Documents/GitHub/FoxDot/FoxDot/snd/f/upper/brand new.wav", bufnum:133);
Buffer.read(s, "C:/Users/Ryan/Documents/GitHub/FoxDot/FoxDot/snd/f/upper/flared funk1.wav", bufnum:134);
Buffer.read(s, "C:/Users/Ryan/Documents/GitHub/FoxDot/FoxDot/snd/f/upper/horn swipe.wav", bufnum:135);
Buffer.read(s, "C:/Users/Ryan/Documents/GitHub/FoxDot/FoxDot/snd/g/upper/0_Stab.wav", bufnum:136);
Buffer.read(s, "C:/Users/Ryan/Documents/GitHub/FoxDot/FoxDot/snd/g/upper/GHOST.wav", bufnum:137);
Buffer.read(s, "C:/Users/Ryan/Documents/GitHub/FoxDot/FoxDot/snd/h/upper/clap_0.wav", bufnum:138);
Buffer.read(s, "C:/Users/Ryan/Documents/GitHub/FoxDot/FoxDot/snd/h/upper/clap_1.wav", bufnum:139);
Buffer.read(s, "C:/Users/Ryan/Documents/GitHub/FoxDot/FoxDot/snd/i/upper/0_rock_snare.wav", bufnum:140);
Buffer.read(s, "C:/Users/Ryan/Documents/GitHub/FoxDot/FoxDot/snd/i/upper/1_rock_snare.wav", bufnum:141);
Buffer.read(s, "C:/Users/Ryan/Documents/GitHub/FoxDot/FoxDot/snd/i/upper/3_rock_snare.wav", bufnum:142);
Buffer.read(s, "C:/Users/Ryan/Documents/GitHub/FoxDot/FoxDot/snd/i/upper/4_rock_snare.wav", bufnum:143);
Buffer.read(s, "C:/Users/Ryan/Documents/GitHub/FoxDot/FoxDot/snd/j/upper/11.wav", bufnum:144);
Buffer.read(s, "C:/Users/Ryan/Documents/GitHub/FoxDot/FoxDot/snd/j/upper/145.wav", bufnum:145);
Buffer.read(s, "C:/Users/Ryan/Documents/GitHub/FoxDot/FoxDot/snd/j/upper/76.wav", bufnum:146);
Buffer.read(s, "C:/Users/Ryan/Documents/GitHub/FoxDot/FoxDot/snd/j/upper/81.wav", bufnum:147);
Buffer.read(s, "C:/Users/Ryan/Documents/GitHub/FoxDot/FoxDot/snd/k/upper/K1.wav", bufnum:148);
Buffer.read(s, "C:/Users/Ryan/Documents/GitHub/FoxDot/FoxDot/snd/k/upper/K2.wav", bufnum:149);
Buffer.read(s, "C:/Users/Ryan/Documents/GitHub/FoxDot/FoxDot/snd/k/upper/K3.wav", bufnum:150);
Buffer.read(s, "C:/Users/Ryan/Documents/GitHub/FoxDot/FoxDot/snd/l/upper/glitch_0.wav", bufnum:151);
Buffer.read(s, "C:/Users/Ryan/Documents/GitHub/FoxDot/FoxDot/snd/l/upper/glitch_1.wav", bufnum:152);
Buffer.read(s, "C:/Users/Ryan/Documents/GitHub/FoxDot/FoxDot/snd/l/upper/glitch_2.wav", bufnum:153);
Buffer.read(s, "C:/Users/Ryan/Documents/GitHub/FoxDot/FoxDot/snd/l/upper/glitch_3.wav", bufnum:154);
Buffer.read(s, "C:/Users/Ryan/Documents/GitHub/FoxDot/FoxDot/snd/l/upper/glitch_4.wav", bufnum:155);
Buffer.read(s, "C:/Users/Ryan/Documents/GitHub/FoxDot/FoxDot/snd/l/upper/glitch_40.wav", bufnum:156);
Buffer.read(s, "C:/Users/Ryan/Documents/GitHub/FoxDot/FoxDot/snd/m/upper/11_bass_low.wav", bufnum:157);
Buffer.read(s, "C:/Users/Ryan/Documents/GitHub/FoxDot/FoxDot/snd/m/upper/12_bass_low.wav", bufnum:158);
Buffer.read(s, "C:/Users/Ryan/Documents/GitHub/FoxDot/FoxDot/snd/m/upper/13_bass_low.wav", bufnum:159);
Buffer.read(s, "C:/Users/Ryan/Documents/GitHub/FoxDot/FoxDot/snd/n/upper/Openhat01.wav", bufnum:160);
Buffer.read(s, "C:/Users/Ryan/Documents/GitHub/FoxDot/FoxDot/snd/n/upper/Openhat03.wav", bufnum:161);
Buffer.read(s, "C:/Users/Ryan/Documents/GitHub/FoxDot/FoxDot/snd/n/upper/Openhat08.wav", bufnum:162);
Buffer.read(s, "C:/Users/Ryan/Documents/GitHub/FoxDot/FoxDot/snd/n/upper/Openhat09.wav", bufnum:163);
Buffer.read(s, "C:/Users/Ryan/Documents/GitHub/FoxDot/FoxDot/snd/n/upper/Openhat10.wav", bufnum:164);
Buffer.read(s, "C:/Users/Ryan/Documents/GitHub/FoxDot/FoxDot/snd/n/upper/noise_hat_open_0.wav", bufnum:165);
Buffer.read(s, "C:/Users/Ryan/Documents/GitHub/FoxDot/FoxDot/snd/o/upper/O (1).wav", bufnum:166);
Buffer.read(s, "C:/Users/Ryan/Documents/GitHub/FoxDot/FoxDot/snd/o/upper/O (10).wav", bufnum:167);
Buffer.read(s, "C:/Users/Ryan/Documents/GitHub/FoxDot/FoxDot/snd/o/upper/O (2).wav", bufnum:168);
Buffer.read(s, "C:/Users/Ryan/Documents/GitHub/FoxDot/FoxDot/snd/o/upper/O (3).wav", bufnum:169);
Buffer.read(s, "C:/Users/Ryan/Documents/GitHub/FoxDot/FoxDot/snd/o/upper/O (4).wav", bufnum:170);
Buffer.read(s, "C:/Users/Ryan/Documents/GitHub/FoxDot/FoxDot/snd/o/upper/O (5).wav", bufnum:171);
Buffer.read(s, "C:/Users/Ryan/Documents/GitHub/FoxDot/FoxDot/snd/o/upper/O (6).wav", bufnum:172);
Buffer.read(s, "C:/Users/Ryan/Documents/GitHub/FoxDot/FoxDot/snd/o/upper/O (7).wav", bufnum:173);
Buffer.read(s, "C:/Users/Ryan/Documents/GitHub/FoxDot/FoxDot/snd/o/upper/O (8).wav", bufnum:174);
Buffer.read(s, "C:/Users/Ryan/Documents/GitHub/FoxDot/FoxDot/snd/o/upper/O (9).wav", bufnum:175);
Buffer.read(s, "C:/Users/Ryan/Documents/GitHub/FoxDot/FoxDot/snd/p/upper/08-tabla_tas1.wav", bufnum:176);
Buffer.read(s, "C:/Users/Ryan/Documents/GitHub/FoxDot/FoxDot/snd/p/upper/09-tabla_tas2.wav", bufnum:177);
Buffer.read(s, "C:/Users/Ryan/Documents/GitHub/FoxDot/FoxDot/snd/p/upper/10-tabla_tas3.wav", bufnum:178);
Buffer.read(s, "C:/Users/Ryan/Documents/GitHub/FoxDot/FoxDot/snd/p/upper/15-tabla_tun1.wav", bufnum:179);
Buffer.read(s, "C:/Users/Ryan/Documents/GitHub/FoxDot/FoxDot/snd/p/upper/16-tabla_tun2.wav", bufnum:180);
Buffer.read(s, "C:/Users/Ryan/Documents/GitHub/FoxDot/FoxDot/snd/p/upper/17-tabla_tun3.wav", bufnum:181);
Buffer.read(s, "C:/Users/Ryan/Documents/GitHub/FoxDot/FoxDot/snd/q/upper/G1.wav", bufnum:182);
Buffer.read(s, "C:/Users/Ryan/Documents/GitHub/FoxDot/FoxDot/snd/q/upper/G2.wav", bufnum:183);
Buffer.read(s, "C:/Users/Ryan/Documents/GitHub/FoxDot/FoxDot/snd/q/upper/G3.wav", bufnum:184);
Buffer.read(s, "C:/Users/Ryan/Documents/GitHub/FoxDot/FoxDot/snd/r/upper/0_metallic.wav", bufnum:185);
Buffer.read(s, "C:/Users/Ryan/Documents/GitHub/FoxDot/FoxDot/snd/r/upper/1_metallic.wav", bufnum:186);
Buffer.read(s, "C:/Users/Ryan/Documents/GitHub/FoxDot/FoxDot/snd/r/upper/2_metallic.wav", bufnum:187);
Buffer.read(s, "C:/Users/Ryan/Documents/GitHub/FoxDot/FoxDot/snd/r/upper/3_metallic.wav", bufnum:188);
Buffer.read(s, "C:/Users/Ryan/Documents/GitHub/FoxDot/FoxDot/snd/r/upper/4_metallic.wav", bufnum:189);
Buffer.read(s, "C:/Users/Ryan/Documents/GitHub/FoxDot/FoxDot/snd/s/upper/0_tamborine.wav", bufnum:190);
Buffer.read(s, "C:/Users/Ryan/Documents/GitHub/FoxDot/FoxDot/snd/s/upper/1_tamborine.wav", bufnum:191);
Buffer.read(s, "C:/Users/Ryan/Documents/GitHub/FoxDot/FoxDot/snd/s/upper/2_tamborine.wav", bufnum:192);
Buffer.read(s, "C:/Users/Ryan/Documents/GitHub/FoxDot/FoxDot/snd/t/upper/cowbell_0.wav", bufnum:193);
Buffer.read(s, "C:/Users/Ryan/Documents/GitHub/FoxDot/FoxDot/snd/t/upper/cowbell_1.wav", bufnum:194);
Buffer.read(s, "C:/Users/Ryan/Documents/GitHub/FoxDot/FoxDot/snd/t/upper/cowbell_2.wav", bufnum:195);
Buffer.read(s, "C:/Users/Ryan/Documents/GitHub/FoxDot/FoxDot/snd/u/upper/0_misc.wav", bufnum:196);
Buffer.read(s, "C:/Users/Ryan/Documents/GitHub/FoxDot/FoxDot/snd/u/upper/1_misc.wav", bufnum:197);
Buffer.read(s, "C:/Users/Ryan/Documents/GitHub/FoxDot/FoxDot/snd/u/upper/2_misc.wav", bufnum:198);
Buffer.read(s, "C:/Users/Ryan/Documents/GitHub/FoxDot/FoxDot/snd/u/upper/3_misc.wav", bufnum:199);
Buffer.read(s, "C:/Users/Ryan/Documents/GitHub/FoxDot/FoxDot/snd/u/upper/4_misc.wav", bufnum:200);
Buffer.read(s, "C:/Users/Ryan/Documents/GitHub/FoxDot/FoxDot/snd/v/upper/V (1).wav", bufnum:201);
Buffer.read(s, "C:/Users/Ryan/Documents/GitHub/FoxDot/FoxDot/snd/v/upper/V (10).wav", bufnum:202);
Buffer.read(s, "C:/Users/Ryan/Documents/GitHub/FoxDot/FoxDot/snd/v/upper/V (11).wav", bufnum:203);
Buffer.read(s, "C:/Users/Ryan/Documents/GitHub/FoxDot/FoxDot/snd/v/upper/V (2).wav", bufnum:204);
Buffer.read(s, "C:/Users/Ryan/Documents/GitHub/FoxDot/FoxDot/snd/v/upper/V (3).wav", bufnum:205);
Buffer.read(s, "C:/Users/Ryan/Documents/GitHub/FoxDot/FoxDot/snd/v/upper/V (4).wav", bufnum:206);
Buffer.read(s, "C:/Users/Ryan/Documents/GitHub/FoxDot/FoxDot/snd/v/upper/V (5).wav", bufnum:207);
Buffer.read(s, "C:/Users/Ryan/Documents/GitHub/FoxDot/FoxDot/snd/v/upper/V (6).wav", bufnum:208);
Buffer.read(s, "C:/Users/Ryan/Documents/GitHub/FoxDot/FoxDot/snd/v/upper/V (7).wav", bufnum:209);
Buffer.read(s, "C:/Users/Ryan/Documents/GitHub/FoxDot/FoxDot/snd/v/upper/V (8).wav", bufnum:210);
Buffer.read(s, "C:/Users/Ryan/Documents/GitHub/FoxDot/FoxDot/snd/v/upper/V (9).wav", bufnum:211);
Buffer.read(s, "C:/Users/Ryan/Documents/GitHub/FoxDot/FoxDot/snd/w/upper/0_distortion.wav", bufnum:212);
Buffer.read(s, "C:/Users/Ryan/Documents/GitHub/FoxDot/FoxDot/snd/w/upper/1_distortion.wav", bufnum:213);
Buffer.read(s, "C:/Users/Ryan/Documents/GitHub/FoxDot/FoxDot/snd/x/upper/0_bass_drum.wav", bufnum:214);
Buffer.read(s, "C:/Users/Ryan/Documents/GitHub/FoxDot/FoxDot/snd/x/upper/1_kick_drum.wav", bufnum:215);
Buffer.read(s, "C:/Users/Ryan/Documents/GitHub/FoxDot/FoxDot/snd/x/upper/2_kick_drum_lo.wav", bufnum:216);
Buffer.read(s, "C:/Users/Ryan/Documents/GitHub/FoxDot/FoxDot/snd/y/upper/bleep_0.wav", bufnum:217);
Buffer.read(s, "C:/Users/Ryan/Documents/GitHub/FoxDot/FoxDot/snd/y/upper/bleep_1.wav", bufnum:218);
Buffer.read(s, "C:/Users/Ryan/Documents/GitHub/FoxDot/FoxDot/snd/y/upper/bleep_2.wav", bufnum:219);
Buffer.read(s, "C:/Users/Ryan/Documents/GitHub/FoxDot/FoxDot/snd/y/upper/bleep_3.wav", bufnum:220);
Buffer.read(s, "C:/Users/Ryan/Documents/GitHub/FoxDot/FoxDot/snd/y/upper/bleep_4.wav", bufnum:221);
Buffer.read(s, "C:/Users/Ryan/Documents/GitHub/FoxDot/FoxDot/snd/z/upper/0_beep.wav", bufnum:222);
Buffer.read(s, "C:/Users/Ryan/Documents/GitHub/FoxDot/FoxDot/snd/z/upper/1_beep.wav", bufnum:223);
Buffer.read(s, "C:/Users/Ryan/Documents/GitHub/FoxDot/FoxDot/snd/_/ampersand/2_triangle.wav", bufnum:224);
Buffer.read(s, "C:/Users/Ryan/Documents/GitHub/FoxDot/FoxDot/snd/_/asterix/cp0.wav", bufnum:225);
Buffer.read(s, "C:/Users/Ryan/Documents/GitHub/FoxDot/FoxDot/snd/_/asterix/cp1.wav", bufnum:226);
Buffer.read(s, "C:/Users/Ryan/Documents/GitHub/FoxDot/FoxDot/snd/_/asterix/cp2.wav", bufnum:227);
Buffer.read(s, "C:/Users/Ryan/Documents/GitHub/FoxDot/FoxDot/snd/_/at/gb_noise (1).wav", bufnum:228);
Buffer.read(s, "C:/Users/Ryan/Documents/GitHub/FoxDot/FoxDot/snd/_/at/gb_noise (2).wav", bufnum:229);
Buffer.read(s, "C:/Users/Ryan/Documents/GitHub/FoxDot/FoxDot/snd/_/at/gb_noise (3).wav", bufnum:230);
Buffer.read(s, "C:/Users/Ryan/Documents/GitHub/FoxDot/FoxDot/snd/_/at/gb_noise (4).wav", bufnum:231);
Buffer.read(s, "C:/Users/Ryan/Documents/GitHub/FoxDot/FoxDot/snd/_/at/gb_noise (5).wav", bufnum:232);
Buffer.read(s, "C:/Users/Ryan/Documents/GitHub/FoxDot/FoxDot/snd/_/at/perc (5).wav", bufnum:233);
Buffer.read(s, "C:/Users/Ryan/Documents/GitHub/FoxDot/FoxDot/snd/_/bar/0.wav", bufnum:234);
Buffer.read(s, "C:/Users/Ryan/Documents/GitHub/FoxDot/FoxDot/snd/_/caret/0.wav", bufnum:235);
Buffer.read(s, "C:/Users/Ryan/Documents/GitHub/FoxDot/FoxDot/snd/_/caret/1.wav", bufnum:236);
Buffer.read(s, "C:/Users/Ryan/Documents/GitHub/FoxDot/FoxDot/snd/_/caret/2.wav", bufnum:237);
Buffer.read(s, "C:/Users/Ryan/Documents/GitHub/FoxDot/FoxDot/snd/_/caret/3.wav", bufnum:238);
Buffer.read(s, "C:/Users/Ryan/Documents/GitHub/FoxDot/FoxDot/snd/_/caret/4.wav", bufnum:239);
Buffer.read(s, "C:/Users/Ryan/Documents/GitHub/FoxDot/FoxDot/snd/_/colon/0.wav", bufnum:240);
Buffer.read(s, "C:/Users/Ryan/Documents/GitHub/FoxDot/FoxDot/snd/_/dollar/ikea_0.wav", bufnum:241);
Buffer.read(s, "C:/Users/Ryan/Documents/GitHub/FoxDot/FoxDot/snd/_/dollar/ikea_1.wav", bufnum:242);
Buffer.read(s, "C:/Users/Ryan/Documents/GitHub/FoxDot/FoxDot/snd/_/dollar/ikea_10.wav", bufnum:243);
Buffer.read(s, "C:/Users/Ryan/Documents/GitHub/FoxDot/FoxDot/snd/_/dollar/ikea_11.wav", bufnum:244);
Buffer.read(s, "C:/Users/Ryan/Documents/GitHub/FoxDot/FoxDot/snd/_/dollar/ikea_12.wav", bufnum:245);
Buffer.read(s, "C:/Users/Ryan/Documents/GitHub/FoxDot/FoxDot/snd/_/dollar/ikea_13.wav", bufnum:246);
Buffer.read(s, "C:/Users/Ryan/Documents/GitHub/FoxDot/FoxDot/snd/_/dollar/ikea_14.wav", bufnum:247);
Buffer.read(s, "C:/Users/Ryan/Documents/GitHub/FoxDot/FoxDot/snd/_/dollar/ikea_15.wav", bufnum:248);
Buffer.read(s, "C:/Users/Ryan/Documents/GitHub/FoxDot/FoxDot/snd/_/dollar/ikea_16.wav", bufnum:249);
Buffer.read(s, "C:/Users/Ryan/Documents/GitHub/FoxDot/FoxDot/snd/_/dollar/ikea_17.wav", bufnum:250);
Buffer.read(s, "C:/Users/Ryan/Documents/GitHub/FoxDot/FoxDot/snd/_/dollar/ikea_18.wav", bufnum:251);
Buffer.read(s, "C:/Users/Ryan/Documents/GitHub/FoxDot/FoxDot/snd/_/dollar/ikea_2.wav", bufnum:252);
Buffer.read(s, "C:/Users/Ryan/Documents/GitHub/FoxDot/FoxDot/snd/_/dollar/ikea_3.wav", bufnum:253);
Buffer.read(s, "C:/Users/Ryan/Documents/GitHub/FoxDot/FoxDot/snd/_/dollar/ikea_4.wav", bufnum:254);
Buffer.read(s, "C:/Users/Ryan/Documents/GitHub/FoxDot/FoxDot/snd/_/dollar/ikea_5.wav", bufnum:255);
Buffer.read(s, "C:/Users/Ryan/Documents/GitHub/FoxDot/FoxDot/snd/_/dollar/ikea_6.wav", bufnum:256);
Buffer.read(s, "C:/Users/Ryan/Documents/GitHub/FoxDot/FoxDot/snd/_/dollar/ikea_7.wav", bufnum:257);
Buffer.read(s, "C:/Users/Ryan/Documents/GitHub/FoxDot/FoxDot/snd/_/dollar/ikea_9.wav", bufnum:258);
Buffer.read(s, "C:/Users/Ryan/Documents/GitHub/FoxDot/FoxDot/snd/_/equals/0_hihat_open.wav", bufnum:259);
Buffer.read(s, "C:/Users/Ryan/Documents/GitHub/FoxDot/FoxDot/snd/_/equals/1_hihat_open.wav", bufnum:260);
Buffer.read(s, "C:/Users/Ryan/Documents/GitHub/FoxDot/FoxDot/snd/_/equals/3_hihat_open.wav", bufnum:261);
Buffer.read(s, "C:/Users/Ryan/Documents/GitHub/FoxDot/FoxDot/snd/_/equals/5_hihat_open.wav", bufnum:262);
Buffer.read(s, "C:/Users/Ryan/Documents/GitHub/FoxDot/FoxDot/snd/_/equals/9_hihat_open.wav", bufnum:263);
Buffer.read(s, "C:/Users/Ryan/Documents/GitHub/FoxDot/FoxDot/snd/_/exclamation/yeah_0.wav", bufnum:264);
Buffer.read(s, "C:/Users/Ryan/Documents/GitHub/FoxDot/FoxDot/snd/_/exclamation/yeah_1.wav", bufnum:265);
Buffer.read(s, "C:/Users/Ryan/Documents/GitHub/FoxDot/FoxDot/snd/_/forwardslash/0_cymrev.wav", bufnum:266);
Buffer.read(s, "C:/Users/Ryan/Documents/GitHub/FoxDot/FoxDot/snd/_/forwardslash/1_rev.wav", bufnum:267);
Buffer.read(s, "C:/Users/Ryan/Documents/GitHub/FoxDot/FoxDot/snd/_/greaterthan/0.wav", bufnum:268);
Buffer.read(s, "C:/Users/Ryan/Documents/GitHub/FoxDot/FoxDot/snd/_/hash/0_crash.wav", bufnum:269);
Buffer.read(s, "C:/Users/Ryan/Documents/GitHub/FoxDot/FoxDot/snd/_/hash/1_crash.wav", bufnum:270);
Buffer.read(s, "C:/Users/Ryan/Documents/GitHub/FoxDot/FoxDot/snd/_/hash/2_crash.wav", bufnum:271);
Buffer.read(s, "C:/Users/Ryan/Documents/GitHub/FoxDot/FoxDot/snd/_/hyphen/0_hihat_closed.wav", bufnum:272);
Buffer.read(s, "C:/Users/Ryan/Documents/GitHub/FoxDot/FoxDot/snd/_/hyphen/1_hihat_closed.wav", bufnum:273);
Buffer.read(s, "C:/Users/Ryan/Documents/GitHub/FoxDot/FoxDot/snd/_/hyphen/2_hihat_closed.wav", bufnum:274);
Buffer.read(s, "C:/Users/Ryan/Documents/GitHub/FoxDot/FoxDot/snd/_/hyphen/3_hihat_closed.wav", bufnum:275);
Buffer.read(s, "C:/Users/Ryan/Documents/GitHub/FoxDot/FoxDot/snd/_/hyphen/4_hihat_closed.wav", bufnum:276);
Buffer.read(s, "C:/Users/Ryan/Documents/GitHub/FoxDot/FoxDot/snd/_/hyphen/9_hihat_closed.wav", bufnum:277);
Buffer.read(s, "C:/Users/Ryan/Documents/GitHub/FoxDot/FoxDot/snd/_/lessthan/0.wav", bufnum:278);
Buffer.read(s, "C:/Users/Ryan/Documents/GitHub/FoxDot/FoxDot/snd/_/percent/noise_0.wav", bufnum:279);
Buffer.read(s, "C:/Users/Ryan/Documents/GitHub/FoxDot/FoxDot/snd/_/percent/noise_1.wav", bufnum:280);
Buffer.read(s, "C:/Users/Ryan/Documents/GitHub/FoxDot/FoxDot/snd/_/percent/noise_2.wav", bufnum:281);
Buffer.read(s, "C:/Users/Ryan/Documents/GitHub/FoxDot/FoxDot/snd/_/percent/noise_3.wav", bufnum:282);
Buffer.read(s, "C:/Users/Ryan/Documents/GitHub/FoxDot/FoxDot/snd/_/percent/noise_4.wav", bufnum:283);
Buffer.read(s, "C:/Users/Ryan/Documents/GitHub/FoxDot/FoxDot/snd/_/plus/beep (1).wav", bufnum:284);
Buffer.read(s, "C:/Users/Ryan/Documents/GitHub/FoxDot/FoxDot/snd/_/plus/beep (2).wav", bufnum:285);
Buffer.read(s, "C:/Users/Ryan/Documents/GitHub/FoxDot/FoxDot/snd/_/plus/beep (3).wav", bufnum:286);
Buffer.read(s, "C:/Users/Ryan/Documents/GitHub/FoxDot/FoxDot/snd/_/plus/beep (4).wav", bufnum:287);
Buffer.read(s, "C:/Users/Ryan/Documents/GitHub/FoxDot/FoxDot/snd/_/question/0.wav", bufnum:288);
Buffer.read(s, "C:/Users/Ryan/Documents/GitHub/FoxDot/FoxDot/snd/_/tilde/0_ride.wav", bufnum:289);
Buffer.read(s, "C:/Users/Ryan/Documents/GitHub/FoxDot/FoxDot/snd/_/tilde/1_ride.wav", bufnum:290);
Buffer.read(s, "C:/Users/Ryan/Documents/GitHub/FoxDot/FoxDot/snd/_/backslash/0_lazer.wav", bufnum:291);
Buffer.read(s, "C:/Users/Ryan/Documents/GitHub/FoxDot/FoxDot/snd/_/backslash/1_lazer.wav", bufnum:292);
Buffer.read(s, "C:/Users/Ryan/Documents/GitHub/FoxDot/FoxDot/snd/_/backslash/2_lazer.wav", bufnum:293);
Buffer.read(s, "C:/Users/Ryan/Documents/GitHub/FoxDot/FoxDot/snd/_/1/one1.wav", bufnum:294);
Buffer.read(s, "C:/Users/Ryan/Documents/GitHub/FoxDot/FoxDot/snd/_/1/one2.wav", bufnum:295);
Buffer.read(s, "C:/Users/Ryan/Documents/GitHub/FoxDot/FoxDot/snd/_/2/two1.wav", bufnum:296);
Buffer.read(s, "C:/Users/Ryan/Documents/GitHub/FoxDot/FoxDot/snd/_/2/two2.wav", bufnum:297);
Buffer.read(s, "C:/Users/Ryan/Documents/GitHub/FoxDot/FoxDot/snd/_/3/three1.wav", bufnum:298);
Buffer.read(s, "C:/Users/Ryan/Documents/GitHub/FoxDot/FoxDot/snd/_/3/three2.wav", bufnum:299);
Buffer.read(s, "C:/Users/Ryan/Documents/GitHub/FoxDot/FoxDot/snd/_/4/four1.wav", bufnum:300);
Buffer.read(s, "C:/Users/Ryan/Documents/GitHub/FoxDot/FoxDot/snd/_/4/four2.wav", bufnum:301);
Buffer.read(s, "C:/Users/Ryan/Documents/GitHub/FoxDot/FoxDot/snd/_loop_/afro105.wav", bufnum:302);
Buffer.read(s, "C:/Users/Ryan/Documents/GitHub/FoxDot/FoxDot/snd/_loop_/break170.wav", bufnum:303);
Buffer.read(s, "C:/Users/Ryan/Documents/GitHub/FoxDot/FoxDot/snd/_loop_/cowbells110.wav", bufnum:304);
Buffer.read(s, "C:/Users/Ryan/Documents/GitHub/FoxDot/FoxDot/snd/_loop_/dirty120.wav", bufnum:305);
Buffer.read(s, "C:/Users/Ryan/Documents/GitHub/FoxDot/FoxDot/snd/_loop_/drums130.wav", bufnum:306);
Buffer.read(s, "C:/Users/Ryan/Documents/GitHub/FoxDot/FoxDot/snd/_loop_/foxdot.wav", bufnum:307);
Buffer.read(s, "C:/Users/Ryan/Documents/GitHub/FoxDot/FoxDot/snd/_loop_/robot110.wav", bufnum:308);
Buffer.read(s, "C:/Users/Ryan/Documents/GitHub/FoxDot/FoxDot/snd/_loop_/techno130.wav", bufnum:309);
Buffer.read(s, "C:/Users/Ryan/Documents/GitHub/FoxDot/FoxDot/snd/_loop_/thomas99.wav", bufnum:310);
