Buffer.read(s, "C:/Users/Ryan/Documents/GitHub/FoxDot/FoxDot/snd/_/exclamation/0.wav", bufnum:60);
Buffer.read(s, "C:/Users/Ryan/Documents/GitHub/FoxDot/FoxDot/snd/_/hash/0.wav", bufnum:62);
Buffer.read(s, "C:/Users/Ryan/Documents/GitHub/FoxDot/FoxDot/snd/_/percent/0.wav", bufnum:63);
Buffer.read(s, "C:/Users/Ryan/Documents/GitHub/FoxDot/FoxDot/snd/_/dollar/0.wav", bufnum:64);
Buffer.read(s, "C:/Users/Ryan/Documents/GitHub/FoxDot/FoxDot/snd/_/plus/0.wav", bufnum:65);
Buffer.read(s, "C:/Users/Ryan/Documents/GitHub/FoxDot/FoxDot/snd/_/asterix/0.wav", bufnum:66);
Buffer.read(s, "C:/Users/Ryan/Documents/GitHub/FoxDot/FoxDot/snd/_/hyphen/0.wav", bufnum:67);
Buffer.read(s, "C:/Users/Ryan/Documents/GitHub/FoxDot/FoxDot/snd/_/forwardslash/0.wav", bufnum:68);
Buffer.read(s, "C:/Users/Ryan/Documents/GitHub/FoxDot/FoxDot/snd/_/colon/0.wav", bufnum:73);
Buffer.read(s, "C:/Users/Ryan/Documents/GitHub/FoxDot/FoxDot/snd/_/equals/0.wav", bufnum:74);
Buffer.read(s, "C:/Users/Ryan/Documents/GitHub/FoxDot/FoxDot/snd/_/lessthan/0.wav", bufnum:69);
Buffer.read(s, "C:/Users/Ryan/Documents/GitHub/FoxDot/FoxDot/snd/_/question/0.wav", bufnum:76);
Buffer.read(s, "C:/Users/Ryan/Documents/GitHub/FoxDot/FoxDot/snd/_/greaterthan/0.wav", bufnum:70);
Buffer.read(s, "C:/Users/Ryan/Documents/GitHub/FoxDot/FoxDot/snd/A/upper/0.wav", bufnum:37);
Buffer.read(s, "C:/Users/Ryan/Documents/GitHub/FoxDot/FoxDot/snd/_/at/0.wav", bufnum:61);
Buffer.read(s, "C:/Users/Ryan/Documents/GitHub/FoxDot/FoxDot/snd/C/upper/0.wav", bufnum:39);
Buffer.read(s, "C:/Users/Ryan/Documents/GitHub/FoxDot/FoxDot/snd/B/upper/0.wav", bufnum:38);
Buffer.read(s, "C:/Users/Ryan/Documents/GitHub/FoxDot/FoxDot/snd/E/upper/0.wav", bufnum:41);
Buffer.read(s, "C:/Users/Ryan/Documents/GitHub/FoxDot/FoxDot/snd/D/upper/0.wav", bufnum:40);
Buffer.read(s, "C:/Users/Ryan/Documents/GitHub/FoxDot/FoxDot/snd/F/upper/0.wav", bufnum:42);
Buffer.read(s, "C:/Users/Ryan/Documents/GitHub/FoxDot/FoxDot/snd/I/upper/0.wav", bufnum:44);
Buffer.read(s, "C:/Users/Ryan/Documents/GitHub/FoxDot/FoxDot/snd/H/upper/0.wav", bufnum:43);
Buffer.read(s, "C:/Users/Ryan/Documents/GitHub/FoxDot/FoxDot/snd/J/upper/0.wav", bufnum:45);
Buffer.read(s, "C:/Users/Ryan/Documents/GitHub/FoxDot/FoxDot/snd/O/upper/0.wav", bufnum:46);
Buffer.read(s, "C:/Users/Ryan/Documents/GitHub/FoxDot/FoxDot/snd/Q/upper/0.wav", bufnum:48);
Buffer.read(s, "C:/Users/Ryan/Documents/GitHub/FoxDot/FoxDot/snd/P/upper/0.wav", bufnum:47);
Buffer.read(s, "C:/Users/Ryan/Documents/GitHub/FoxDot/FoxDot/snd/S/upper/0.wav", bufnum:49);
Buffer.read(s, "C:/Users/Ryan/Documents/GitHub/FoxDot/FoxDot/snd/T/upper/0.wav", bufnum:50);
Buffer.read(s, "C:/Users/Ryan/Documents/GitHub/FoxDot/FoxDot/snd/W/upper/0.wav", bufnum:52);
Buffer.read(s, "C:/Users/Ryan/Documents/GitHub/FoxDot/FoxDot/snd/V/upper/0.wav", bufnum:51);
Buffer.read(s, "C:/Users/Ryan/Documents/GitHub/FoxDot/FoxDot/snd/Y/upper/0.wav", bufnum:58);
Buffer.read(s, "C:/Users/Ryan/Documents/GitHub/FoxDot/FoxDot/snd/X/upper/0_bass_drum.wav", bufnum:53);
Buffer.read(s, "C:/Users/Ryan/Documents/GitHub/FoxDot/FoxDot/snd/X/upper/1_kick_drum.wav", bufnum:54);
Buffer.read(s, "C:/Users/Ryan/Documents/GitHub/FoxDot/FoxDot/snd/X/upper/2_kick_drum_lo.wav", bufnum:55);
Buffer.read(s, "C:/Users/Ryan/Documents/GitHub/FoxDot/FoxDot/snd/X/upper/3_kick_drum_hi.wav", bufnum:56);
Buffer.read(s, "C:/Users/Ryan/Documents/GitHub/FoxDot/FoxDot/snd/X/upper/4_kick_drum.wav", bufnum:57);
Buffer.read(s, "C:/Users/Ryan/Documents/GitHub/FoxDot/FoxDot/snd/Z/upper/0.wav", bufnum:59);
Buffer.read(s, "C:/Users/Ryan/Documents/GitHub/FoxDot/FoxDot/snd/_/backslash/0.wav", bufnum:72);
Buffer.read(s, "C:/Users/Ryan/Documents/GitHub/FoxDot/FoxDot/snd/_/caret/0.wav", bufnum:77);
Buffer.read(s, "C:/Users/Ryan/Documents/GitHub/FoxDot/FoxDot/snd/a/lower/0.wav", bufnum:1);
Buffer.read(s, "C:/Users/Ryan/Documents/GitHub/FoxDot/FoxDot/snd/b/lower/0.wav", bufnum:2);
Buffer.read(s, "C:/Users/Ryan/Documents/GitHub/FoxDot/FoxDot/snd/e/lower/0.wav", bufnum:4);
Buffer.read(s, "C:/Users/Ryan/Documents/GitHub/FoxDot/FoxDot/snd/d/lower/0.wav", bufnum:3);
Buffer.read(s, "C:/Users/Ryan/Documents/GitHub/FoxDot/FoxDot/snd/g/lower/0.wav", bufnum:6);
Buffer.read(s, "C:/Users/Ryan/Documents/GitHub/FoxDot/FoxDot/snd/f/lower/0.wav", bufnum:5);
Buffer.read(s, "C:/Users/Ryan/Documents/GitHub/FoxDot/FoxDot/snd/i/lower/0.wav", bufnum:8);
Buffer.read(s, "C:/Users/Ryan/Documents/GitHub/FoxDot/FoxDot/snd/h/lower/0.wav", bufnum:7);
Buffer.read(s, "C:/Users/Ryan/Documents/GitHub/FoxDot/FoxDot/snd/k/lower/0.wav", bufnum:10);
Buffer.read(s, "C:/Users/Ryan/Documents/GitHub/FoxDot/FoxDot/snd/j/lower/0.wav", bufnum:9);
Buffer.read(s, "C:/Users/Ryan/Documents/GitHub/FoxDot/FoxDot/snd/m/lower/0.wav", bufnum:11);
Buffer.read(s, "C:/Users/Ryan/Documents/GitHub/FoxDot/FoxDot/snd/o/lower/0_snare_drum.wav", bufnum:13);
Buffer.read(s, "C:/Users/Ryan/Documents/GitHub/FoxDot/FoxDot/snd/o/lower/1_snare_drum.wav", bufnum:14);
Buffer.read(s, "C:/Users/Ryan/Documents/GitHub/FoxDot/FoxDot/snd/o/lower/2_snare_drum.wav", bufnum:15);
Buffer.read(s, "C:/Users/Ryan/Documents/GitHub/FoxDot/FoxDot/snd/o/lower/3_snare_drum.wav", bufnum:16);
Buffer.read(s, "C:/Users/Ryan/Documents/GitHub/FoxDot/FoxDot/snd/n/lower/0.wav", bufnum:12);
Buffer.read(s, "C:/Users/Ryan/Documents/GitHub/FoxDot/FoxDot/snd/q/lower/0.wav", bufnum:18);
Buffer.read(s, "C:/Users/Ryan/Documents/GitHub/FoxDot/FoxDot/snd/p/lower/0.wav", bufnum:17);
Buffer.read(s, "C:/Users/Ryan/Documents/GitHub/FoxDot/FoxDot/snd/s/lower/0.wav", bufnum:20);
Buffer.read(s, "C:/Users/Ryan/Documents/GitHub/FoxDot/FoxDot/snd/r/lower/0.wav", bufnum:19);
Buffer.read(s, "C:/Users/Ryan/Documents/GitHub/FoxDot/FoxDot/snd/t/lower/0.wav", bufnum:21);
Buffer.read(s, "C:/Users/Ryan/Documents/GitHub/FoxDot/FoxDot/snd/w/lower/0.wav", bufnum:29);
Buffer.read(s, "C:/Users/Ryan/Documents/GitHub/FoxDot/FoxDot/snd/v/lower/0.wav", bufnum:22);
Buffer.read(s, "C:/Users/Ryan/Documents/GitHub/FoxDot/FoxDot/snd/v/lower/0_bass_low.wav", bufnum:23);
Buffer.read(s, "C:/Users/Ryan/Documents/GitHub/FoxDot/FoxDot/snd/v/lower/1_bass_drum.wav", bufnum:24);
Buffer.read(s, "C:/Users/Ryan/Documents/GitHub/FoxDot/FoxDot/snd/v/lower/1_bass_drum_low.wav", bufnum:25);
Buffer.read(s, "C:/Users/Ryan/Documents/GitHub/FoxDot/FoxDot/snd/v/lower/1_bass_low.wav", bufnum:26);
Buffer.read(s, "C:/Users/Ryan/Documents/GitHub/FoxDot/FoxDot/snd/v/lower/6_bass_drum_lo.wav", bufnum:27);
Buffer.read(s, "C:/Users/Ryan/Documents/GitHub/FoxDot/FoxDot/snd/v/lower/9_bass_drum_lo.wav", bufnum:28);
Buffer.read(s, "C:/Users/Ryan/Documents/GitHub/FoxDot/FoxDot/snd/y/lower/0.wav", bufnum:35);
Buffer.read(s, "C:/Users/Ryan/Documents/GitHub/FoxDot/FoxDot/snd/x/lower/0_kick_drum.wav", bufnum:30);
Buffer.read(s, "C:/Users/Ryan/Documents/GitHub/FoxDot/FoxDot/snd/x/lower/1_kick_drum.wav", bufnum:31);
Buffer.read(s, "C:/Users/Ryan/Documents/GitHub/FoxDot/FoxDot/snd/x/lower/2_kick_drum.wav", bufnum:32);
Buffer.read(s, "C:/Users/Ryan/Documents/GitHub/FoxDot/FoxDot/snd/x/lower/3_kick_drum.wav", bufnum:33);
Buffer.read(s, "C:/Users/Ryan/Documents/GitHub/FoxDot/FoxDot/snd/x/lower/4_kick_drum.wav", bufnum:34);
Buffer.read(s, "C:/Users/Ryan/Documents/GitHub/FoxDot/FoxDot/snd/z/lower/0.wav", bufnum:36);
Buffer.read(s, "C:/Users/Ryan/Documents/GitHub/FoxDot/FoxDot/snd/_/bar/0.wav", bufnum:75);
Buffer.read(s, "C:/Users/Ryan/Documents/GitHub/FoxDot/FoxDot/snd/_/tilde/0.wav", bufnum:71);
