Buffer.read(s, "C:/Users/Ryan/Documents/GitHub/FoxDot/FoxDot/snd/_/exclamation/0.wav", bufnum:98);
Buffer.read(s, "C:/Users/Ryan/Documents/GitHub/FoxDot/FoxDot/snd/_/hash/0_crash.wav", bufnum:100);
Buffer.read(s, "C:/Users/Ryan/Documents/GitHub/FoxDot/FoxDot/snd/_/hash/1_crash.wav", bufnum:101);
Buffer.read(s, "C:/Users/Ryan/Documents/GitHub/FoxDot/FoxDot/snd/_/hash/2_cymbal.wav", bufnum:102);
Buffer.read(s, "C:/Users/Ryan/Documents/GitHub/FoxDot/FoxDot/snd/_/percent/0.wav", bufnum:103);
Buffer.read(s, "C:/Users/Ryan/Documents/GitHub/FoxDot/FoxDot/snd/_/dollar/0.wav", bufnum:104);
Buffer.read(s, "C:/Users/Ryan/Documents/GitHub/FoxDot/FoxDot/snd/_/plus/cl0.wav", bufnum:105);
Buffer.read(s, "C:/Users/Ryan/Documents/GitHub/FoxDot/FoxDot/snd/_/plus/cl1.wav", bufnum:106);
Buffer.read(s, "C:/Users/Ryan/Documents/GitHub/FoxDot/FoxDot/snd/_/asterix/cp0.wav", bufnum:107);
Buffer.read(s, "C:/Users/Ryan/Documents/GitHub/FoxDot/FoxDot/snd/_/asterix/cp1.wav", bufnum:108);
Buffer.read(s, "C:/Users/Ryan/Documents/GitHub/FoxDot/FoxDot/snd/_/asterix/cp2.wav", bufnum:109);
Buffer.read(s, "C:/Users/Ryan/Documents/GitHub/FoxDot/FoxDot/snd/_/hyphen/hh0.wav", bufnum:110);
Buffer.read(s, "C:/Users/Ryan/Documents/GitHub/FoxDot/FoxDot/snd/_/hyphen/hh1.wav", bufnum:111);
Buffer.read(s, "C:/Users/Ryan/Documents/GitHub/FoxDot/FoxDot/snd/_/hyphen/hh2.wav", bufnum:112);
Buffer.read(s, "C:/Users/Ryan/Documents/GitHub/FoxDot/FoxDot/snd/_/forwardslash/0_cymrev.wav", bufnum:113);
Buffer.read(s, "C:/Users/Ryan/Documents/GitHub/FoxDot/FoxDot/snd/_/colon/0.wav", bufnum:118);
Buffer.read(s, "C:/Users/Ryan/Documents/GitHub/FoxDot/FoxDot/snd/_/equals/hho0.wav", bufnum:119);
Buffer.read(s, "C:/Users/Ryan/Documents/GitHub/FoxDot/FoxDot/snd/_/equals/hho1.wav", bufnum:120);
Buffer.read(s, "C:/Users/Ryan/Documents/GitHub/FoxDot/FoxDot/snd/_/equals/hho2.wav", bufnum:121);
Buffer.read(s, "C:/Users/Ryan/Documents/GitHub/FoxDot/FoxDot/snd/_/lessthan/0.wav", bufnum:114);
Buffer.read(s, "C:/Users/Ryan/Documents/GitHub/FoxDot/FoxDot/snd/_/question/0.wav", bufnum:123);
Buffer.read(s, "C:/Users/Ryan/Documents/GitHub/FoxDot/FoxDot/snd/_/greaterthan/0.wav", bufnum:115);
Buffer.read(s, "C:/Users/Ryan/Documents/GitHub/FoxDot/FoxDot/snd/A/upper/sword_1.wav", bufnum:66);
Buffer.read(s, "C:/Users/Ryan/Documents/GitHub/FoxDot/FoxDot/snd/A/upper/sword_2.wav", bufnum:67);
Buffer.read(s, "C:/Users/Ryan/Documents/GitHub/FoxDot/FoxDot/snd/_/at/0.wav", bufnum:99);
Buffer.read(s, "C:/Users/Ryan/Documents/GitHub/FoxDot/FoxDot/snd/C/upper/0.wav", bufnum:69);
Buffer.read(s, "C:/Users/Ryan/Documents/GitHub/FoxDot/FoxDot/snd/B/upper/0.wav", bufnum:68);
Buffer.read(s, "C:/Users/Ryan/Documents/GitHub/FoxDot/FoxDot/snd/E/upper/0.wav", bufnum:71);
Buffer.read(s, "C:/Users/Ryan/Documents/GitHub/FoxDot/FoxDot/snd/D/upper/0.wav", bufnum:70);
Buffer.read(s, "C:/Users/Ryan/Documents/GitHub/FoxDot/FoxDot/snd/F/upper/0.wav", bufnum:72);
Buffer.read(s, "C:/Users/Ryan/Documents/GitHub/FoxDot/FoxDot/snd/I/upper/0.wav", bufnum:74);
Buffer.read(s, "C:/Users/Ryan/Documents/GitHub/FoxDot/FoxDot/snd/H/upper/0.wav", bufnum:73);
Buffer.read(s, "C:/Users/Ryan/Documents/GitHub/FoxDot/FoxDot/snd/J/upper/0.wav", bufnum:75);
Buffer.read(s, "C:/Users/Ryan/Documents/GitHub/FoxDot/FoxDot/snd/O/upper/0_snare_drum.wav", bufnum:79);
Buffer.read(s, "C:/Users/Ryan/Documents/GitHub/FoxDot/FoxDot/snd/O/upper/1_snare_drum.wav", bufnum:80);
Buffer.read(s, "C:/Users/Ryan/Documents/GitHub/FoxDot/FoxDot/snd/O/upper/2_snare_drum.wav", bufnum:81);
Buffer.read(s, "C:/Users/Ryan/Documents/GitHub/FoxDot/FoxDot/snd/N/upper/04-tabla_na.wav", bufnum:76);
Buffer.read(s, "C:/Users/Ryan/Documents/GitHub/FoxDot/FoxDot/snd/N/upper/05-tabla_na_o.wav", bufnum:77);
Buffer.read(s, "C:/Users/Ryan/Documents/GitHub/FoxDot/FoxDot/snd/N/upper/06-tabla_na_s.wav", bufnum:78);
Buffer.read(s, "C:/Users/Ryan/Documents/GitHub/FoxDot/FoxDot/snd/Q/upper/0.wav", bufnum:85);
Buffer.read(s, "C:/Users/Ryan/Documents/GitHub/FoxDot/FoxDot/snd/P/upper/15-tabla_tun1.wav", bufnum:82);
Buffer.read(s, "C:/Users/Ryan/Documents/GitHub/FoxDot/FoxDot/snd/P/upper/16-tabla_tun2.wav", bufnum:83);
Buffer.read(s, "C:/Users/Ryan/Documents/GitHub/FoxDot/FoxDot/snd/P/upper/17-tabla_tun3.wav", bufnum:84);
Buffer.read(s, "C:/Users/Ryan/Documents/GitHub/FoxDot/FoxDot/snd/S/upper/sh0.wav", bufnum:86);
Buffer.read(s, "C:/Users/Ryan/Documents/GitHub/FoxDot/FoxDot/snd/T/upper/0.wav", bufnum:87);
Buffer.read(s, "C:/Users/Ryan/Documents/GitHub/FoxDot/FoxDot/snd/W/upper/03-bd_boom.wav", bufnum:90);
Buffer.read(s, "C:/Users/Ryan/Documents/GitHub/FoxDot/FoxDot/snd/V/upper/0_low_kick.wav", bufnum:88);
Buffer.read(s, "C:/Users/Ryan/Documents/GitHub/FoxDot/FoxDot/snd/V/upper/1_low_kick.wav", bufnum:89);
Buffer.read(s, "C:/Users/Ryan/Documents/GitHub/FoxDot/FoxDot/snd/Y/upper/0.wav", bufnum:96);
Buffer.read(s, "C:/Users/Ryan/Documents/GitHub/FoxDot/FoxDot/snd/X/upper/0_bass_drum.wav", bufnum:91);
Buffer.read(s, "C:/Users/Ryan/Documents/GitHub/FoxDot/FoxDot/snd/X/upper/1_kick_drum.wav", bufnum:92);
Buffer.read(s, "C:/Users/Ryan/Documents/GitHub/FoxDot/FoxDot/snd/X/upper/2_kick_drum_lo.wav", bufnum:93);
Buffer.read(s, "C:/Users/Ryan/Documents/GitHub/FoxDot/FoxDot/snd/X/upper/3_kick_drum_hi.wav", bufnum:94);
Buffer.read(s, "C:/Users/Ryan/Documents/GitHub/FoxDot/FoxDot/snd/X/upper/4_kick_drum.wav", bufnum:95);
Buffer.read(s, "C:/Users/Ryan/Documents/GitHub/FoxDot/FoxDot/snd/Z/upper/0.wav", bufnum:97);
Buffer.read(s, "C:/Users/Ryan/Documents/GitHub/FoxDot/FoxDot/snd/_/backslash/0.wav", bufnum:117);
Buffer.read(s, "C:/Users/Ryan/Documents/GitHub/FoxDot/FoxDot/snd/_/caret/0.wav", bufnum:124);
Buffer.read(s, "C:/Users/Ryan/Documents/GitHub/FoxDot/FoxDot/snd/a/lower/jug_0.wav", bufnum:1);
Buffer.read(s, "C:/Users/Ryan/Documents/GitHub/FoxDot/FoxDot/snd/a/lower/jug_1.wav", bufnum:2);
Buffer.read(s, "C:/Users/Ryan/Documents/GitHub/FoxDot/FoxDot/snd/a/lower/jug_2.wav", bufnum:3);
Buffer.read(s, "C:/Users/Ryan/Documents/GitHub/FoxDot/FoxDot/snd/a/lower/jug_3.wav", bufnum:4);
Buffer.read(s, "C:/Users/Ryan/Documents/GitHub/FoxDot/FoxDot/snd/c/lower/plastic_0.wav", bufnum:6);
Buffer.read(s, "C:/Users/Ryan/Documents/GitHub/FoxDot/FoxDot/snd/c/lower/plastic_1.wav", bufnum:7);
Buffer.read(s, "C:/Users/Ryan/Documents/GitHub/FoxDot/FoxDot/snd/b/lower/0.wav", bufnum:5);
Buffer.read(s, "C:/Users/Ryan/Documents/GitHub/FoxDot/FoxDot/snd/e/lower/0.wav", bufnum:9);
Buffer.read(s, "C:/Users/Ryan/Documents/GitHub/FoxDot/FoxDot/snd/d/lower/0.wav", bufnum:8);
Buffer.read(s, "C:/Users/Ryan/Documents/GitHub/FoxDot/FoxDot/snd/g/lower/0.wav", bufnum:11);
Buffer.read(s, "C:/Users/Ryan/Documents/GitHub/FoxDot/FoxDot/snd/f/lower/0.wav", bufnum:10);
Buffer.read(s, "C:/Users/Ryan/Documents/GitHub/FoxDot/FoxDot/snd/i/lower/sd_high0.wav", bufnum:13);
Buffer.read(s, "C:/Users/Ryan/Documents/GitHub/FoxDot/FoxDot/snd/i/lower/sd_high1.WAV", bufnum:14);
Buffer.read(s, "C:/Users/Ryan/Documents/GitHub/FoxDot/FoxDot/snd/i/lower/sd_high2.wav", bufnum:15);
Buffer.read(s, "C:/Users/Ryan/Documents/GitHub/FoxDot/FoxDot/snd/h/lower/0.wav", bufnum:12);
Buffer.read(s, "C:/Users/Ryan/Documents/GitHub/FoxDot/FoxDot/snd/k/lower/0.wav", bufnum:18);
Buffer.read(s, "C:/Users/Ryan/Documents/GitHub/FoxDot/FoxDot/snd/j/lower/glass_0.wav", bufnum:16);
Buffer.read(s, "C:/Users/Ryan/Documents/GitHub/FoxDot/FoxDot/snd/j/lower/glass_9.wav", bufnum:17);
Buffer.read(s, "C:/Users/Ryan/Documents/GitHub/FoxDot/FoxDot/snd/m/lower/0.wav", bufnum:23);
Buffer.read(s, "C:/Users/Ryan/Documents/GitHub/FoxDot/FoxDot/snd/l/lower/knock_0.wav", bufnum:19);
Buffer.read(s, "C:/Users/Ryan/Documents/GitHub/FoxDot/FoxDot/snd/l/lower/knock_1.wav", bufnum:20);
Buffer.read(s, "C:/Users/Ryan/Documents/GitHub/FoxDot/FoxDot/snd/l/lower/knock_2.wav", bufnum:21);
Buffer.read(s, "C:/Users/Ryan/Documents/GitHub/FoxDot/FoxDot/snd/l/lower/knock_3.wav", bufnum:22);
Buffer.read(s, "C:/Users/Ryan/Documents/GitHub/FoxDot/FoxDot/snd/o/lower/0_snare_drum.wav", bufnum:27);
Buffer.read(s, "C:/Users/Ryan/Documents/GitHub/FoxDot/FoxDot/snd/o/lower/1_snare_dru.wav", bufnum:28);
Buffer.read(s, "C:/Users/Ryan/Documents/GitHub/FoxDot/FoxDot/snd/o/lower/2_snare_drum.wav", bufnum:29);
Buffer.read(s, "C:/Users/Ryan/Documents/GitHub/FoxDot/FoxDot/snd/o/lower/3_snare_drum.wav", bufnum:30);
Buffer.read(s, "C:/Users/Ryan/Documents/GitHub/FoxDot/FoxDot/snd/o/lower/4_snare_drum.wav", bufnum:31);
Buffer.read(s, "C:/Users/Ryan/Documents/GitHub/FoxDot/FoxDot/snd/n/lower/01-tabla_ke1.wav", bufnum:24);
Buffer.read(s, "C:/Users/Ryan/Documents/GitHub/FoxDot/FoxDot/snd/n/lower/02-tabla_ke2.wav", bufnum:25);
Buffer.read(s, "C:/Users/Ryan/Documents/GitHub/FoxDot/FoxDot/snd/n/lower/03-tabla_ke3.wav", bufnum:26);
Buffer.read(s, "C:/Users/Ryan/Documents/GitHub/FoxDot/FoxDot/snd/q/lower/07-tabla_re.wav", bufnum:35);
Buffer.read(s, "C:/Users/Ryan/Documents/GitHub/FoxDot/FoxDot/snd/q/lower/11-tabla_te1.wav", bufnum:36);
Buffer.read(s, "C:/Users/Ryan/Documents/GitHub/FoxDot/FoxDot/snd/q/lower/12-tabla_te2.wav", bufnum:37);
Buffer.read(s, "C:/Users/Ryan/Documents/GitHub/FoxDot/FoxDot/snd/q/lower/13-tabla_te_m.wav", bufnum:38);
Buffer.read(s, "C:/Users/Ryan/Documents/GitHub/FoxDot/FoxDot/snd/q/lower/14-tabla_te_ne.wav", bufnum:39);
Buffer.read(s, "C:/Users/Ryan/Documents/GitHub/FoxDot/FoxDot/snd/p/lower/08-tabla_tas1.wav", bufnum:32);
Buffer.read(s, "C:/Users/Ryan/Documents/GitHub/FoxDot/FoxDot/snd/p/lower/09-tabla_tas2.wav", bufnum:33);
Buffer.read(s, "C:/Users/Ryan/Documents/GitHub/FoxDot/FoxDot/snd/p/lower/10-tabla_tas3.wav", bufnum:34);
Buffer.read(s, "C:/Users/Ryan/Documents/GitHub/FoxDot/FoxDot/snd/s/lower/sh0.wav", bufnum:41);
Buffer.read(s, "C:/Users/Ryan/Documents/GitHub/FoxDot/FoxDot/snd/r/lower/metal_1.wav", bufnum:40);
Buffer.read(s, "C:/Users/Ryan/Documents/GitHub/FoxDot/FoxDot/snd/u/lower/pan0.wav", bufnum:44);
Buffer.read(s, "C:/Users/Ryan/Documents/GitHub/FoxDot/FoxDot/snd/u/lower/pan1.wav", bufnum:45);
Buffer.read(s, "C:/Users/Ryan/Documents/GitHub/FoxDot/FoxDot/snd/u/lower/pan2.wav", bufnum:46);
Buffer.read(s, "C:/Users/Ryan/Documents/GitHub/FoxDot/FoxDot/snd/t/lower/cb0.wav", bufnum:42);
Buffer.read(s, "C:/Users/Ryan/Documents/GitHub/FoxDot/FoxDot/snd/t/lower/cb1.wav", bufnum:43);
Buffer.read(s, "C:/Users/Ryan/Documents/GitHub/FoxDot/FoxDot/snd/w/lower/0_soft_kick.wav", bufnum:54);
Buffer.read(s, "C:/Users/Ryan/Documents/GitHub/FoxDot/FoxDot/snd/w/lower/1_soft_kick.wav", bufnum:55);
Buffer.read(s, "C:/Users/Ryan/Documents/GitHub/FoxDot/FoxDot/snd/w/lower/2_soft_kick.wav", bufnum:56);
Buffer.read(s, "C:/Users/Ryan/Documents/GitHub/FoxDot/FoxDot/snd/w/lower/3_soft_kick.wav", bufnum:57);
Buffer.read(s, "C:/Users/Ryan/Documents/GitHub/FoxDot/FoxDot/snd/v/lower/00_bass_low.wav", bufnum:47);
Buffer.read(s, "C:/Users/Ryan/Documents/GitHub/FoxDot/FoxDot/snd/v/lower/0_bass_low.wav", bufnum:48);
Buffer.read(s, "C:/Users/Ryan/Documents/GitHub/FoxDot/FoxDot/snd/v/lower/1_bass_drum.wav", bufnum:49);
Buffer.read(s, "C:/Users/Ryan/Documents/GitHub/FoxDot/FoxDot/snd/v/lower/1_bass_drum_low.wav", bufnum:50);
Buffer.read(s, "C:/Users/Ryan/Documents/GitHub/FoxDot/FoxDot/snd/v/lower/1_bass_low.wav", bufnum:51);
Buffer.read(s, "C:/Users/Ryan/Documents/GitHub/FoxDot/FoxDot/snd/v/lower/6_bass_drum_lo.wav", bufnum:52);
Buffer.read(s, "C:/Users/Ryan/Documents/GitHub/FoxDot/FoxDot/snd/v/lower/9_bass_drum_lo.wav", bufnum:53);
Buffer.read(s, "C:/Users/Ryan/Documents/GitHub/FoxDot/FoxDot/snd/y/lower/0.wav", bufnum:63);
Buffer.read(s, "C:/Users/Ryan/Documents/GitHub/FoxDot/FoxDot/snd/x/lower/0_kick_drum.wav", bufnum:58);
Buffer.read(s, "C:/Users/Ryan/Documents/GitHub/FoxDot/FoxDot/snd/x/lower/1_kick_drum.wav", bufnum:59);
Buffer.read(s, "C:/Users/Ryan/Documents/GitHub/FoxDot/FoxDot/snd/x/lower/2_kick_drum.wav", bufnum:60);
Buffer.read(s, "C:/Users/Ryan/Documents/GitHub/FoxDot/FoxDot/snd/x/lower/3_kick_drum.wav", bufnum:61);
Buffer.read(s, "C:/Users/Ryan/Documents/GitHub/FoxDot/FoxDot/snd/x/lower/4_kick_drum.wav", bufnum:62);
Buffer.read(s, "C:/Users/Ryan/Documents/GitHub/FoxDot/FoxDot/snd/z/lower/0_scratch.wav", bufnum:64);
Buffer.read(s, "C:/Users/Ryan/Documents/GitHub/FoxDot/FoxDot/snd/z/lower/1_beep.wav", bufnum:65);
Buffer.read(s, "C:/Users/Ryan/Documents/GitHub/FoxDot/FoxDot/snd/_/bar/0.wav", bufnum:122);
Buffer.read(s, "C:/Users/Ryan/Documents/GitHub/FoxDot/FoxDot/snd/_/tilde/0.wav", bufnum:116);
